X:1
T:Title
L:1/8
M:4/4
K:Db
V:1 treble nm="Grand Piano"
V:1
 z4 z[Q:1/4=100] B,B,D | F2 F4- FE | ED C4- CC | E4- EEDE | F4- FB,B,D | F2 F4- FE | ED C4- CC | %7
 E4- EEDE | F6- FF | B2 B4 Bc | d2 dc B3 d | c2 A4 EE | G2 GG F3 F | B2 B4 Bc | d3 c B3 d | %15
 c2 A4 AA | A3 A c3 d | B6- BF | B2 B4 Bc | d2 dc B3 d | c2 A4 EE | G2 GG F3 F | B2 B4 Bc | %23
 d3 c B3 d | c2 A4 AA | A3 A c3 d | B6 AA | A3 A c3 d | B6 z2 |] %29

